images_elementary_svg/cmd/ca/sc_italic.svg

<svg viewBox="0 0 16 16" xmlns="http://www.w3.org/2000/svg" xmlns:xlink="http://www.w3.org/1999/xlink"><radialGradient id="a" cx="8.183168" cy="3.816429" gradientTransform="matrix(-2.4307441 .00000001 0 -3.7907913 27.778615 15.184354)" gradientUnits="userSpaceOnUse" r="3.655032"><stop offset="0" stop-color="#737373"/><stop offset=".262" stop-color="#636363"/><stop offset=".705" stop-color="#4b4b4b"/><stop offset="1" stop-color="#3f3f3f"/></radialGradient>

/&amp;amp;gt;<path d="m10.08214 2.9588153q-.9393365 0-1.7733264.3599325-.8339899.3511537-1.5099607 1.0183456-.6759707.6671919-1.158807 1.6240856-.4828363.9568937-.7286438 2.159595-.2458076 1.2378166-.1843557 2.203489.070231.956894.4564997 1.615307.3862691.658413 1.0885764 1.000788.7110861.342375 1.7469894.342375.7813168 0 1.5099607-.149241.7374224-.158019 1.4572874-.359932l-.280923 1.422172q-.368711.131683-.7374224.237029-.3599325.09657-.7462015.158019-.386269.06145-.8164322.08779-.4301632.03512-.9481149.03512-1.4397299 0-2.3966236-.474058-.9568937-.474063-1.4748454-1.343168-.5179516-.869106-.60574-2.089365-.0877884-1.2202585.2106922-2.7038827.2897017-1.4572877.9129995-2.6687677.6232977-1.2114801 1.5362972-2.0805854.9217783-.8691053 2.1157007-1.3519416 1.1939224-.4828362 2.6160944-.4828362.948115 0 1.764547.1931345.825211.1931345 1.43973.5618458l-.956893 1.3694992q-.491615-.2809229-1.106134-.4828362-.60574-.2019134-1.430951-.2019134z" fill="url(#a)" stroke="#000" stroke-opacity=".6" transform="scale(1.0142139 .98598533)"/></svg>

<?xml version="1.0" encoding="UTF-8" standalone="no"?>
<svg
   xmlns:dc="http://purl.org/dc/elements/1.1/"
   xmlns:cc="http://creativecommons.org/ns#"
   xmlns:rdf="http://www.w3.org/1999/02/22-rdf-syntax-ns#"
   xmlns:svg="http://www.w3.org/2000/svg"
   xmlns="http://www.w3.org/2000/svg"
   xmlns:xlink="http://www.w3.org/1999/xlink"
   xmlns:sodipodi="http://sodipodi.sourceforge.net/DTD/sodipodi-0.dtd"
   xmlns:inkscape="http://www.inkscape.org/namespaces/inkscape"
   viewBox="0 0 16 16"
   version="1.1"
   id="svg13"
   sodipodi:docname="sc_italic.svg"
   inkscape:version="0.92.4 (unknown)"
   inkscape:export-filename="/home/rizmut/Dokumen/Rizmut/Github/libreoffice-style-elementary/images_elementary/cmd/ca/sc_italic.png"
   inkscape:export-xdpi="96"
   inkscape:export-ydpi="96"><metadata
   id="metadata19">
  <rdf:RDF>
    <cc:Work
       rdf:about="">
      <dc:format>image/svg+xml</dc:format>
      <dc:type
         rdf:resource="http://purl.org/dc/dcmitype/StillImage" />
      <dc:title />
    </cc:Work>
  </rdf:RDF>
</metadata>
<defs
   id="defs17">
  <radialGradient
     inkscape:collect="always"
     xlink:href="#a"
     id="radialGradient857"
     cx="8.1831675"
     cy="3.8164291"
     fx="8.1831675"
     fy="3.8164291"
     r="3.6550317"
     gradientTransform="matrix(-2.4307441,1.2889903e-8,0,-3.7907913,27.778615,15.184354)"
     gradientUnits="userSpaceOnUse" />
</defs>
<sodipodi:namedview
   pagecolor="#ffffff"
   bordercolor="#666666"
   borderopacity="1"
   objecttolerance="10"
   gridtolerance="10"
   guidetolerance="10"
   inkscape:pageopacity="0"
   inkscape:pageshadow="2"
   inkscape:window-width="1366"
   inkscape:window-height="714"
   id="namedview15"
   showgrid="true"
   inkscape:zoom="20.85965"
   inkscape:cx="-6.8264133"
   inkscape:cy="8.39716"
   inkscape:window-x="0"
   inkscape:window-y="28"
   inkscape:window-maximized="1"
   inkscape:current-layer="svg13">
  <inkscape:grid
     type="xygrid"
     id="grid826" />
</sodipodi:namedview>
<radialGradient
   id="a"
   cx="9.781"
   cy="3.505"
   gradientTransform="matrix(-2.59494 .15673 -.2 -3.09238 37.272 9.305)"
   gradientUnits="userSpaceOnUse"
   r="5.086">
  <stop
     offset="0"
     stop-color="#737373"
     id="stop2" />
  <stop
     offset=".262"
     stop-color="#636363"
     id="stop4" />
  <stop
     offset=".705"
     stop-color="#4b4b4b"
     id="stop6" />
  <stop
     offset="1"
     stop-color="#3f3f3f"
     id="stop8" />
</radialGradient>

/&amp;gt;<g
   aria-label="C"
   transform="scale(1.0142139,0.98598533)"
   style="font-style:normal;font-weight:normal;font-size:39.48643112px;line-height:1.25;font-family:sans-serif;letter-spacing:0px;word-spacing:0px;fill:url(#radialGradient857);fill-opacity:1;stroke:#000000;stroke-width:1;stroke-miterlimit:4;stroke-dasharray:none;stroke-opacity:0.6"
   id="text830">
  <path
     d="m 10.08214,2.9588153 q -0.9393365,0 -1.7733264,0.3599325 Q 7.4748237,3.6699015 6.7988529,4.3370934 6.1228822,5.0042853 5.6400459,5.961179 5.1572096,6.9180727 4.9114021,8.120774 4.6655945,9.3585906 4.7270464,10.324263 q 0.070231,0.956894 0.4564997,1.615307 0.3862691,0.658413 1.0885764,1.000788 0.7110861,0.342375 1.7469894,0.342375 0.7813168,0 1.5099607,-0.149241 0.7374224,-0.158019 1.4572874,-0.359932 l -0.280923,1.422172 q -0.368711,0.131683 -0.7374224,0.237029 -0.3599325,0.09657 -0.7462015,0.158019 -0.386269,0.06145 -0.8164322,0.08779 -0.4301632,0.03512 -0.9481149,0.03512 -1.4397299,0 -2.3966236,-0.474058 Q 4.1037487,13.765569 3.585797,12.896464 3.0678454,12.027358 2.980057,10.807099 2.8922686,9.5868405 3.1907492,8.1032163 3.4804509,6.6459286 4.1037487,5.4344486 4.7270464,4.2229685 5.6400459,3.3538632 6.5618242,2.4847579 7.7557466,2.0019216 8.949669,1.5190854 10.371841,1.5190854 q 0.948115,0 1.764547,0.1931345 0.825211,0.1931345 1.43973,0.5618458 L 12.619225,3.6435649 Q 12.12761,3.362642 11.513091,3.1607287 10.907351,2.9588153 10.08214,2.9588153 Z"
     style="font-style:italic;font-variant:normal;font-weight:normal;font-stretch:normal;font-size:17.97906685px;font-family:'Droid Sans';-inkscape-font-specification:'Droid Sans';fill:url(#radialGradient857);fill-opacity:1;stroke:#000000;stroke-width:1;stroke-miterlimit:4;stroke-dasharray:none;stroke-opacity:0.6"
     id="path820" />
</g>
</svg>
